X: 499
%
U:~=!turn!
T: Mrs. Wemyss of Cuttle Hill
C:Nath. Gow
O:Scotland
B:Keith Norman MacDonald : "The Skye collection of the best reels & strathspeys extant" : 1887
Z:Ralph Palmer
R:Reel
M:2/4
L:1/8
K:G aeolian
{/A}!p!BGGG | (DG)GG | BGGB | d2 (d/e/d/c/) | BGTG>F | DG ~GA/B/ | A!f![CF][CF]A | c2 (d/c/B/A/) :|
!p!B>Tcdd | {/^f}gddd | B>Tcdd | ga {ga}b2 | (B/A/B/c/) (d/c/d/=e/) | fc Tc>B | A!f![CF][CF]A | c2 (d/c/B/A/) |
!p!B>Tcdd | {/^f}gddd | (B/A/B/).c/ dd | gdg>(a | b)>(g a)>^f | g>d=f>c | A[CF][CF]A | c2 (d/c/).B/.A/ |]


